icon-svg/spot-bulb-top.svg

<svg xmlns="http://www.w3.org/2000/svg" viewBox="0 0 24 24"><path fill="#44739e" d="M22 22v-2H2v2Zm-2-4a8 8 0 0 0-4-6.928V9c0-1.108-.892-2-2-2h-4c-1.108 0-2 .892-2 2v2.072A8 8 0 0 0 4 18h8ZM15 5V2h-2v3Zm-4 0V2H9v3Z"/></svg>

<?xml version="1.0" encoding="UTF-8" standalone="no"?>
<svg
   width="24"
   height="24"
   viewBox="0 0 24 24"
   version="1.1"
   xmlns="http://www.w3.org/2000/svg"
   xmlns:svg="http://www.w3.org/2000/svg">
  <path
     style="fill:#44739e"
     d="M 22,22 V 20 H 2 v 2 z M 20,18 A 8,8 0 0 0 16,11.072 V 9 C 16,7.892 15.108,7 14,7 H 10 C 8.892,7 8,7.892 8,9 v 2.072 A 8,8 0 0 0 4,18 h 8 z M 15,5 V 2 H 13 V 5 Z M 11,5 V 2 H 9 v 3 z"
   />
</svg>
